static/images/homeOurProducts3.svg

<svg height="464" viewBox="0 0 534 464" width="534" xmlns="http://www.w3.org/2000/svg" xmlns:xlink="http://www.w3.org/1999/xlink"><defs><path id="a" d="m384 207c0-94.637645-77.229818-171-173-171-94.770182 0-172 76.362355-172 171 0 57.820388 29.5759091 109.239237 75 140h195c45.424091-30.760763 75-82.179612 75-140"/><filter id="b" height="116.7%" width="115.1%" x="-7.5%" y="-7.1%"><feOffset dx="0" dy="4" in="SourceAlpha" result="shadowOffsetOuter1"/><feGaussianBlur in="shadowOffsetOuter1" result="shadowBlurOuter1" stdDeviation="8"/><feColorMatrix in="shadowBlurOuter1" type="matrix" values="0 0 0 0 0.254901961   0 0 0 0 0.458823529   0 0 0 0 0.647058824  0 0 0 0.24 0"/></filter><mask id="c" fill="#fff"><ellipse cx="43.265537" cy="43.730758" fill="#fff" fill-rule="evenodd" rx="43.265537" ry="43.730758"/></mask></defs><g fill="none" fill-rule="evenodd"><path d="m423 209.484117c0-115.6885559-94.690473-209.484117-211.5-209.484117-116.8095273 0-211.5 93.7955611-211.5 209.484117 0 71.575009 36.2626364 134.732566 91.5525818 172.515883h239.8871452c55.297637-37.783317 91.560273-100.940874 91.560273-172.515883" fill="#fff"/><use fill="#000" filter="url(#b)" xlink:href="#a"/><use fill="#fff" fill-rule="evenodd" xlink:href="#a"/><path d="m276.245638 128.617225c0 2.789418-2.239444 5.058555-5.003814 5.058555-2.765253 0-5.006908-2.269137-5.006908-5.058555s2.241655-5.053196 5.006908-5.053196c2.76437 0 5.003814 2.263778 5.003814 5.053196" fill="#646782"/><g transform="translate(60 398)"><path d="m296.654952 12.789206h-290.12381364c-3.37495459 0-6.11404816-2.7513935-6.11404816-6.14150335 0-3.39829851 2.73909357-6.14150334 6.11404816-6.14150334h290.12381364c3.374954 0 6.114048 2.74320483 6.114048 6.14150334 0 3.39010985-2.739094 6.14150335-6.114048 6.14150335" fill="#eee"/><path d="m246.356715 39.2795571h-189.5354925c-3.3749546 0-6.1140482-2.7513935-6.1140482-6.1415034 0-3.3901098 2.7390936-6.1415033 6.1140482-6.1415033h189.5354925c3.374955 0 6.114049 2.7513935 6.114049 6.1415033 0 3.3901099-2.739094 6.1415034-6.114049 6.1415034" fill="#eee" opacity=".8"/><g fill="#efefef"><path d="m154.156869 65.7699081h-38.094596c-3.374954 0-6.114048-2.7513935-6.114048-6.1415033 0-3.3901099 2.739094-6.1415034 6.114048-6.1415034h38.094596c3.374955 0 6.114048 2.7513935 6.114048 6.1415034 0 3.3901098-2.739093 6.1415033-6.114048 6.1415033" opacity=".601449"/><path d="m187.580332 65.7699081h-10.173776c-3.374954 0-6.114048-2.7513935-6.114048-6.1415033 0-3.3901099 2.739094-6.1415034 6.114048-6.1415034h10.173776c3.374955 0 6.114049 2.7513935 6.114049 6.1415034 0 3.3901098-2.739094 6.1415033-6.114049 6.1415033" opacity=".601449"/></g></g><g transform="translate(8.632768 109.506834)"><path d="m466.367232 239.493166c0 9.997199-7.981343 18-18 18h-356.0000004c-10.0241899 0-18-8.002801-18-18v-221.0000003c0-9.9971993 7.9758101-18.00000004 18-18.00000004h356.0000004c10.018657 0 18 8.00280074 18 18.00000004z" fill="#efefef"/><path d="m275.367232 9.49316566c0 2.75638194-2.236604 5.00000004-5 5.00000004-2.760304 0-5-2.2436181-5-5.00000004 0-2.76124017 2.239696-5 5-5 2.763396 0 5 2.23875983 5 5" fill="#646782"/><path d="m94.3672316 240.493166h352.0000004c1.104569 0 2-.895431 2-2v-218.0000003c0-1.1045695-.895431-2-2-2h-352.0000004c-1.1045695 0-2 .8954305-2 2v218.0000003c0 1.104569.8954305 2 2 2z" fill="#646782"/><g fill="#fff"><path d="m321.40113 188.677708h86.094776v-4.316491h-86.094776z"/><path d="m321.40113 201.626287h86.094776v-4.316491h-86.094776z"/><path d="m321.40113 213.617132h86.094776v-4.31649h-86.094776z"/><path d="m122.070621 60.978009h24.723164v156.181277h-24.723164z"/><path d="m156.064972 112.51783h24.723164v104.641456h-24.723164z"/><path d="m190.059322 92.214264h24.723164v124.945022h-24.723164z"/><path d="m224.053672 154.686775h24.723164v62.472511h-24.723164z"/><path d="m258.048023 187.484843h24.723164v29.674443h-24.723164z"/></g><path d="m.3445843 257.856463c-.21978747 1.528687-.34449585 3.106052-.34449585 4.717358 0 13.641173 8.1949328 24.692555 18.29984965 24.692555h488.6198279c10.104917 0 18.294985-11.051382 18.294985-24.692555 0-1.611306-.119844-3.188671-.341842-4.717358z" fill="#fffefe"/><path d="m1.57389055 272.563921c2.84441249 8.655859 9.25583855 14.702277 16.72595915 14.702277h488.6202703c7.472332 0 13.883758-6.046418 16.728612-14.702277z" fill="#e0e0e0"/><g transform="translate(321.40113 50.045319)"><ellipse cx="43.265537" cy="43.730758" rx="41.265537" ry="41.730758" stroke="#fff" stroke-width="4"/><path d="m43.2655367 43.7307575v53.937344h55.9139645v-53.8842285z" fill="#fff" mask="url(#c)"/></g></g></g></svg>

<?xml version="1.0" encoding="UTF-8"?>
<svg width="534px" height="464px" viewBox="0 0 534 464" version="1.1" xmlns="http://www.w3.org/2000/svg" xmlns:xlink="http://www.w3.org/1999/xlink">
    <!-- Generator: sketchtool 46.2 (44496) - http://www.bohemiancoding.com/sketch -->
    <title>2451969A-C4D4-4832-BB8F-8B44CAB43E92</title>
    <desc>Created with sketchtool.</desc>
    <defs>
        <path d="M384,207 C384,112.362355 306.770182,36 211,36 C116.229818,36 39,112.362355 39,207 C39,264.820388 68.5759091,316.239237 114,347 L309,347 C354.424091,316.239237 384,264.820388 384,207" id="path-1"></path>
        <filter x="-7.5%" y="-7.1%" width="115.1%" height="116.7%" filterUnits="objectBoundingBox" id="filter-2">
            <feOffset dx="0" dy="4" in="SourceAlpha" result="shadowOffsetOuter1"></feOffset>
            <feGaussianBlur stdDeviation="8" in="shadowOffsetOuter1" result="shadowBlurOuter1"></feGaussianBlur>
            <feColorMatrix values="0 0 0 0 0.254901961   0 0 0 0 0.458823529   0 0 0 0 0.647058824  0 0 0 0.24 0" type="matrix" in="shadowBlurOuter1"></feColorMatrix>
        </filter>
        <ellipse id="path-3" cx="43.2655367" cy="43.7307575" rx="43.2655367" ry="43.7307575"></ellipse>
    </defs>
    <g id="Page-1" stroke="none" stroke-width="1" fill="none" fill-rule="evenodd">
        <g id="Home-Page---new" transform="translate(-615.000000, -2600.000000)">
            <g id="Products" transform="translate(0.000000, 1427.000000)">
                <g id="Analutics" transform="translate(30.000000, 1173.000000)">
                    <g id="Icon3_Analytics-with-recipes" transform="translate(585.000000, 0.000000)">
                        <g id="Group-3">
                            <path d="M423,209.484117 C423,93.7955611 328.309527,0 211.5,0 C94.6904727,0 0,93.7955611 0,209.484117 C0,281.059126 36.2626364,344.216683 91.5525818,382 L331.439727,382 C386.737364,344.216683 423,281.059126 423,209.484117" id="Fill-613" fill="#FFFFFF"></path>
                            <g id="Fill-613">
                                <use fill="black" fill-opacity="1" filter="url(#filter-2)" xlink:href="#path-1"></use>
                                <use fill="#FFFFFF" fill-rule="evenodd" xlink:href="#path-1"></use>
                            </g>
                        </g>
                        <path d="M276.245638,128.617225 C276.245638,131.406643 274.006194,133.67578 271.241824,133.67578 C268.476571,133.67578 266.234916,131.406643 266.234916,128.617225 C266.234916,125.827807 268.476571,123.564029 271.241824,123.564029 C274.006194,123.564029 276.245638,125.827807 276.245638,128.617225" id="Fill-7" fill="#646782"></path>
                        <g id="Group-10" transform="translate(60.000000, 398.000000)">
                            <g id="Group-25">
                                <path d="M296.654952,12.789206 L6.53113836,12.789206 C3.15618377,12.789206 0.417090198,10.0378125 0.417090198,6.64770265 C0.417090198,3.24940414 3.15618377,0.506199314 6.53113836,0.506199314 L296.654952,0.506199314 C300.029906,0.506199314 302.769,3.24940414 302.769,6.64770265 C302.769,10.0378125 300.029906,12.789206 296.654952,12.789206" id="Fill-614" fill="#EEEEEE"></path>
                                <path d="M246.356715,39.2795571 L56.8212225,39.2795571 C53.4462679,39.2795571 50.7071743,36.5281636 50.7071743,33.1380537 C50.7071743,29.7479439 53.4462679,26.9965504 56.8212225,26.9965504 L246.356715,26.9965504 C249.73167,26.9965504 252.470764,29.7479439 252.470764,33.1380537 C252.470764,36.5281636 249.73167,39.2795571 246.356715,39.2795571" id="Fill-615" fill="#EEEEEE" opacity="0.800000012"></path>
                                <path d="M154.156869,65.7699081 L116.062273,65.7699081 C112.687319,65.7699081 109.948225,63.0185146 109.948225,59.6284048 C109.948225,56.2382949 112.687319,53.4869014 116.062273,53.4869014 L154.156869,53.4869014 C157.531824,53.4869014 160.270917,56.2382949 160.270917,59.6284048 C160.270917,63.0185146 157.531824,65.7699081 154.156869,65.7699081" id="Fill-616" fill="#EFEFEF" opacity="0.601449275"></path>
                                <path d="M187.580332,65.7699081 L177.406556,65.7699081 C174.031602,65.7699081 171.292508,63.0185146 171.292508,59.6284048 C171.292508,56.2382949 174.031602,53.4869014 177.406556,53.4869014 L187.580332,53.4869014 C190.955287,53.4869014 193.694381,56.2382949 193.694381,59.6284048 C193.694381,63.0185146 190.955287,65.7699081 187.580332,65.7699081" id="Fill-617" fill="#EFEFEF" opacity="0.601449275"></path>
                            </g>
                        </g>
                        <g id="Page-1" transform="translate(8.632768, 109.506834)">
                            <path d="M466.367232,239.493166 C466.367232,249.490365 458.385889,257.493166 448.367232,257.493166 L92.3672316,257.493166 C82.3430417,257.493166 74.3672316,249.490365 74.3672316,239.493166 L74.3672316,18.4931657 C74.3672316,8.4959664 82.3430417,0.493165664 92.3672316,0.493165664 L448.367232,0.493165664 C458.385889,0.493165664 466.367232,8.4959664 466.367232,18.4931657 L466.367232,239.493166 Z" id="Fill-1" fill="#EFEFEF"></path>
                            <path d="M275.367232,9.49316566 C275.367232,12.2495476 273.130628,14.4931657 270.367232,14.4931657 C267.606928,14.4931657 265.367232,12.2495476 265.367232,9.49316566 C265.367232,6.73192549 267.606928,4.49316566 270.367232,4.49316566 C273.130628,4.49316566 275.367232,6.73192549 275.367232,9.49316566" id="Fill-8" fill="#646782"></path>
                            <path d="M94.3672316,240.493166 L446.367232,240.493166 L446.367232,240.493166 C447.471801,240.493166 448.367232,239.597735 448.367232,238.493166 L448.367232,20.4931657 L448.367232,20.4931657 C448.367232,19.3885962 447.471801,18.4931657 446.367232,18.4931657 L94.3672316,18.4931657 L94.3672316,18.4931657 C93.2626621,18.4931657 92.3672316,19.3885962 92.3672316,20.4931657 L92.3672316,238.493166 L92.3672316,238.493166 C92.3672316,239.597735 93.2626621,240.493166 94.3672316,240.493166 Z" id="Fill-3" fill="#646782"></path>
                            <polygon id="Fill-22" fill="#FFFFFF" points="321.40113 188.677708 407.495906 188.677708 407.495906 184.361217 321.40113 184.361217"></polygon>
                            <polygon id="Fill-23" fill="#FFFFFF" points="321.40113 201.626287 407.495906 201.626287 407.495906 197.309796 321.40113 197.309796"></polygon>
                            <polygon id="Fill-24" fill="#FFFFFF" points="321.40113 213.617132 407.495906 213.617132 407.495906 209.300642 321.40113 209.300642"></polygon>
                            <rect id="Rectangle-4" fill="#FFFFFF" x="122.070621" y="60.9780086" width="24.7231638" height="156.181277"></rect>
                            <rect id="Rectangle-4-Copy" fill="#FFFFFF" x="156.064972" y="112.51783" width="24.7231638" height="104.641456"></rect>
                            <rect id="Rectangle-4-Copy-2" fill="#FFFFFF" x="190.059322" y="92.214264" width="24.7231638" height="124.945022"></rect>
                            <rect id="Rectangle-4-Copy-3" fill="#FFFFFF" x="224.053672" y="154.686775" width="24.7231638" height="62.4725108"></rect>
                            <rect id="Rectangle-4-Copy-4" fill="#FFFFFF" x="258.048023" y="187.484843" width="24.7231638" height="29.6744426"></rect>
                            <path d="M0.344584299,257.856463 C0.124796829,259.38515 8.84456622e-05,260.962515 8.84456622e-05,262.573821 C8.84456622e-05,276.214994 8.19502125,287.266376 18.2999381,287.266376 L506.919766,287.266376 C517.024683,287.266376 525.214751,276.214994 525.214751,262.573821 C525.214751,260.962515 525.094907,259.38515 524.872909,257.856463 L0.344584299,257.856463 Z" id="Fill-5" fill="#FFFEFE"></path>
                            <path d="M1.57389055,272.563921 C4.41830304,281.21978 10.8297291,287.266198 18.2998497,287.266198 L506.92012,287.266198 C514.392452,287.266198 520.803878,281.21978 523.648732,272.563921 L1.57389055,272.563921 Z" id="Fill-6" fill="#E0E0E0"></path>
                            <g id="Group-4" transform="translate(321.401130, 50.045319)">
                                <mask id="mask-4" fill="white">
                                    <use xlink:href="#path-3"></use>
                                </mask>
                                <ellipse stroke="#FFFFFF" stroke-width="4" cx="43.2655367" cy="43.7307575" rx="41.2655367" ry="41.7307575"></ellipse>
                                <polygon id="Path-4" fill="#FFFFFF" mask="url(#mask-4)" points="43.2655367 43.7307575 43.2655367 97.6681015 99.1795012 97.6681015 99.1795012 43.783873"></polygon>
                            </g>
                        </g>
                    </g>
                </g>
            </g>
        </g>
    </g>
</svg>
